icons/Workers-Dark.svg

<svg xmlns="http://www.w3.org/2000/svg" width="256" height="256" fill="none" viewBox="0 0 256 256"><rect width="256" height="256" fill="#242938" rx="60"/><path fill="url(#paint0_linear_107_922)" d="M79.4225 40.5966L102.985 83.1058L81.346 122.056C80.3101 123.917 79.7664 126.01 79.7664 128.139C79.7664 130.269 80.3101 132.362 81.346 134.222L102.985 173.269L79.4225 215.778C74.9888 213.58 71.307 210.116 68.8433 205.824L31.3353 140.666C29.15 136.862 28 132.551 28 128.163C28 123.776 29.15 119.465 31.3353 115.661L68.8433 50.5026C71.3145 46.2287 74.9955 42.7819 79.4225 40.5966V40.5966Z"/><path fill="url(#paint1_linear_107_922)" d="M81.346 122.104C80.3188 123.959 79.7798 126.044 79.7798 128.163C79.7798 130.283 80.3188 132.368 81.346 134.222L102.985 173.269L79.4225 215.778C74.9889 213.58 71.3071 210.116 68.8434 205.824L31.3353 140.666C28.3539 135.521 45.0402 129.366 81.346 122.153V122.104Z" opacity=".7"/><path fill="url(#paint2_linear_107_922)" d="M81.8269 44.8764L102.985 83.1058L99.4749 89.2128L80.8171 57.6195C75.4313 48.8196 67.2084 53.3878 56.9177 71.1801L58.4565 68.5353L68.8434 50.5026C71.2889 46.2427 74.9349 42.7973 79.3264 40.5966L81.7788 44.8764H81.8269Z" opacity=".5"/><path fill="url(#paint3_linear_107_922)" d="M187.138 50.5027L224.646 115.661C229.118 123.355 229.118 132.972 224.646 140.666L187.138 205.824C184.945 209.623 181.791 212.778 177.992 214.973C174.194 217.168 169.885 218.324 165.499 218.327H127.991L174.635 134.223C175.663 132.368 176.202 130.283 176.202 128.164C176.202 126.044 175.663 123.959 174.635 122.105L127.991 38H165.499C169.885 38.0028 174.194 39.1595 177.992 41.3541C181.791 43.5486 184.945 46.7037 187.138 50.5027V50.5027Z"/><path fill="url(#paint4_linear_107_922)" d="M163.575 218.039L126.548 218.375L171.365 133.838C172.367 131.958 172.891 129.861 172.891 127.731C172.891 125.601 172.367 123.503 171.365 121.624L126.548 38H135.011L182.041 121.239C183.155 123.205 183.737 125.429 183.729 127.689C183.72 129.949 183.122 132.168 181.993 134.126C171.871 151.718 161.821 169.35 151.842 187.022C142.705 203.083 146.649 213.422 163.575 218.039V218.039Z"/><path fill="url(#paint5_linear_107_922)" d="M90.4827 218.327C86.6357 218.327 82.7887 217.413 79.4226 215.778L125.683 132.347C127.125 129.75 127.125 126.577 125.683 123.98L79.4226 40.5967C82.8612 38.894 86.6456 38.0055 90.4827 38H127.991L174.635 122.105C175.663 123.959 176.202 126.044 176.202 128.164C176.202 130.283 175.663 132.368 174.635 134.223L127.991 218.327H90.4827Z"/><path fill="url(#paint6_linear_107_922)" d="M171.365 123.98L123.663 38H127.991L174.635 122.105C175.663 123.959 176.202 126.044 176.202 128.164C176.202 130.283 175.663 132.368 174.635 134.223L127.991 218.327H123.663L171.365 132.347C172.808 129.75 172.808 126.577 171.365 123.98V123.98Z" opacity=".6"/><path fill="url(#paint7_linear_107_922)" d="M125.683 123.98L79.4226 40.5968C80.8652 39.8274 82.5964 39.2503 84.2313 38.7694C94.4258 57.0907 109.477 84.8851 129.433 122.105C130.461 123.959 131 126.044 131 128.164C131 130.283 130.461 132.368 129.433 134.223L83.51 217.365C81.8751 216.885 81.0095 216.548 79.4707 215.827L125.634 132.395C127.077 129.799 127.077 126.625 125.634 124.028L125.683 123.98Z" opacity=".6"/><defs><linearGradient id="paint0_linear_107_922" x1="65.493" x2="-11.309" y1="215.778" y2="92.263" gradientUnits="userSpaceOnUse"><stop stop-color="#EB6F07"/><stop offset="1" stop-color="#FAB743"/></linearGradient><linearGradient id="paint1_linear_107_922" x1="89.307" x2="49.763" y1="200.51" y2="159.839" gradientUnits="userSpaceOnUse"><stop stop-color="#D96504"/><stop offset="1" stop-color="#D96504" stop-opacity="0"/></linearGradient><linearGradient id="paint2_linear_107_922" x1="76.266" x2="97.2" y1="44.826" y2="78.454" gradientUnits="userSpaceOnUse"><stop stop-color="#EB6F07"/><stop offset="1" stop-color="#EB720A" stop-opacity="0"/></linearGradient><linearGradient id="paint3_linear_107_922" x1="177.995" x2="109.226" y1="218.327" y2="75.029" gradientUnits="userSpaceOnUse"><stop stop-color="#EE6F05"/><stop offset="1" stop-color="#FAB743"/></linearGradient><linearGradient id="paint4_linear_107_922" x1="107.564" x2="217.671" y1="218.375" y2="190.429" gradientUnits="userSpaceOnUse"><stop stop-color="#D96504" stop-opacity=".8"/><stop offset=".498" stop-color="#D96504" stop-opacity=".2"/><stop offset="1" stop-color="#D96504" stop-opacity="0"/></linearGradient><linearGradient id="paint5_linear_107_922" x1="127.812" x2="57.639" y1="218.327" y2="76.826" gradientUnits="userSpaceOnUse"><stop stop-color="#FFA95F"/><stop offset="1" stop-color="#FFEBC8"/></linearGradient><linearGradient id="paint6_linear_107_922" x1="127.918" x2="186.439" y1="39.984" y2="49.184" gradientUnits="userSpaceOnUse"><stop stop-color="#fff" stop-opacity=".5"/><stop offset="1" stop-color="#fff" stop-opacity=".1"/></linearGradient><linearGradient id="paint7_linear_107_922" x1="72.357" x2="144.69" y1="224.866" y2="214.211" gradientUnits="userSpaceOnUse"><stop stop-color="#fff" stop-opacity=".5"/><stop offset="1" stop-color="#fff" stop-opacity=".1"/></linearGradient></defs></svg>

<svg xmlns="http://www.w3.org/2000/svg" width="256" height="256" fill="none" viewBox="0 0 256 256"><rect width="256" height="256" fill="#242938" rx="60"/><path fill="url(#a)" d="M79.42 40.6 103 83.1l-21.64 38.96a12.5 12.5 0 0 0 0 12.16L103 173.27l-23.57 42.5a25 25 0 0 1-10.58-9.95l-37.5-65.15a25.1 25.1 0 0 1 0-25l37.5-65.17a25 25 0 0 1 10.58-9.9"/><path fill="url(#b)" d="M81.35 122.1a12.5 12.5 0 0 0 0 12.12l21.64 39.05-23.57 42.5a25 25 0 0 1-10.58-9.95l-37.5-65.15q-4.47-7.7 50-18.52z" opacity=".7"/><path fill="url(#c)" d="m81.83 44.88 21.16 38.23-3.52 6.1-18.65-31.59c-5.39-8.8-13.61-4.23-23.9 13.56l1.54-2.64L68.84 50.5a25 25 0 0 1 10.49-9.9l2.45 4.28z" opacity=".5"/><path fill="url(#d)" d="m187.14 50.5 37.5 65.16a25 25 0 0 1 0 25l-37.5 65.16a25 25 0 0 1-21.64 12.5H128l46.63-84.1a12.5 12.5 0 0 0 0-12.11L128 38h37.5a25 25 0 0 1 21.65 12.5"/><path fill="url(#e)" d="m163.57 218.04-37.02.34 44.82-84.54a13 13 0 0 0 0-12.22L126.55 38H135l47.03 83.24a13 13 0 0 1-.05 12.89 7542 7542 0 0 0-30.15 52.9q-13.68 24.09 11.73 31"/><path fill="url(#f)" d="M90.48 218.33c-3.84 0-7.7-.92-11.06-2.55l46.26-83.43a8.6 8.6 0 0 0 0-8.37L79.42 40.6A25 25 0 0 1 90.48 38H128l46.65 84.1a12.5 12.5 0 0 1 0 12.12L128 218.32z"/><path fill="url(#g)" d="M171.37 123.98 123.67 38h4.32l46.65 84.1a12.5 12.5 0 0 1 0 12.12l-46.65 84.1h-4.33l47.7-85.97a8.6 8.6 0 0 0 0-8.37" opacity=".6"/><path fill="url(#h)" d="M125.68 123.98 79.42 40.6a26 26 0 0 1 4.81-1.83 6770 6770 0 0 1 45.2 83.34 12.5 12.5 0 0 1 0 12.11l-45.92 83.15c-1.63-.49-2.5-.82-4.04-1.54l46.16-83.43a8.6 8.6 0 0 0 0-8.37z" opacity=".6"/><defs><linearGradient id="a" x1="65.49" x2="-11.31" y1="215.78" y2="92.26" gradientUnits="userSpaceOnUse"><stop stop-color="#EB6F07"/><stop offset="1" stop-color="#FAB743"/></linearGradient><linearGradient id="b" x1="89.31" x2="49.76" y1="200.51" y2="159.84" gradientUnits="userSpaceOnUse"><stop stop-color="#D96504"/><stop offset="1" stop-color="#D96504" stop-opacity="0"/></linearGradient><linearGradient id="c" x1="76.27" x2="97.2" y1="44.83" y2="78.45" gradientUnits="userSpaceOnUse"><stop stop-color="#EB6F07"/><stop offset="1" stop-color="#EB720A" stop-opacity="0"/></linearGradient><linearGradient id="d" x1="178" x2="109.23" y1="218.33" y2="75.03" gradientUnits="userSpaceOnUse"><stop stop-color="#EE6F05"/><stop offset="1" stop-color="#FAB743"/></linearGradient><linearGradient id="e" x1="107.56" x2="217.67" y1="218.38" y2="190.43" gradientUnits="userSpaceOnUse"><stop stop-color="#D96504" stop-opacity=".8"/><stop offset=".5" stop-color="#D96504" stop-opacity=".2"/><stop offset="1" stop-color="#D96504" stop-opacity="0"/></linearGradient><linearGradient id="f" x1="127.81" x2="57.64" y1="218.33" y2="76.83" gradientUnits="userSpaceOnUse"><stop stop-color="#FFA95F"/><stop offset="1" stop-color="#FFEBC8"/></linearGradient><linearGradient id="g" x1="127.92" x2="186.44" y1="39.98" y2="49.18" gradientUnits="userSpaceOnUse"><stop stop-color="#fff" stop-opacity=".5"/><stop offset="1" stop-color="#fff" stop-opacity=".1"/></linearGradient><linearGradient id="h" x1="72.36" x2="144.69" y1="224.87" y2="214.21" gradientUnits="userSpaceOnUse"><stop stop-color="#fff" stop-opacity=".5"/><stop offset="1" stop-color="#fff" stop-opacity=".1"/></linearGradient></defs></svg>
